X:6
I:linebreak $
T:Courante (CXLII)
T:So ben mi ch'ha bon tempo
C:Michael Praetorius, Terpsichore, 1612
M:6/4
L:1/8
K:F major
G2 | "Gm"B4"C"G2 "Gm"B4"Cm"c2 | "Dm"d4"G"d2 "C"G4"Gm"G2 | "Gm"B4"F"c2 "Bb Gm"d4"C"e2 | "F"f3e"Gm"d2 "F Am"c4c2 | "Dm"f4f2 "C"g4g2 | "F"a4a2 a3g"Dm"f2 | 
"A"e4"Dm"d2 "Gm"d2"A"^c4 | "D"d4d2 d4 ::
"Gm"d2 | "Gm"g4g2 "D"^f4f2 | "Gm"g4g2 "F Am"c4c2 | "F"f4f2 "C"e4e2 | "F"f4f2 "Gm"B4B2 |
"Eb"B4"Gm"B2 "F"c4c2 | "Bb"d4d2 d3c"Gm"B2 | "Am F"A4"Gm"G2 "Cm"G2"D"^F4 | "G"G4G2 G4 :| 

